SF_Symbols/arrowtriangle.down.fill.svg

<?xml version="1.0" encoding="UTF-8"?>
<svg xmlns="http://www.w3.org/2000/svg" xmlns:xlink="http://www.w3.org/1999/xlink" width="24" height="24" viewBox="0 0 24 24" version="1.1">
<g id="surface1">
<path style=" stroke:none;fill-rule:nonzero;fill:rgb(100%,100%,100%);fill-opacity:1;" d="M 22.648438 3.320312 C 22.648438 2.832031 22.472656 2.441406 22.125 2.15625 C 21.777344 1.863281 21.308594 1.714844 20.71875 1.714844 L 3.253906 1.699219 C 2.675781 1.699219 2.210938 1.847656 1.863281 2.144531 C 1.511719 2.429688 1.339844 2.816406 1.339844 3.308594 C 1.339844 3.574219 1.386719 3.832031 1.488281 4.070312 C 1.59375 4.304688 1.714844 4.5625 1.847656 4.847656 L 10.207031 22.058594 C 10.480469 22.628906 10.757812 23.023438 11.035156 23.238281 C 11.320312 23.449219 11.636719 23.558594 11.988281 23.558594 C 12.34375 23.558594 12.660156 23.449219 12.9375 23.238281 C 13.214844 23.023438 13.496094 22.628906 13.78125 22.058594 L 22.125 4.847656 C 22.269531 4.570312 22.386719 4.316406 22.488281 4.085938 C 22.59375 3.84375 22.648438 3.589844 22.648438 3.320312 Z M 22.648438 3.320312 "/>
</g>
</svg>

<svg xmlns="http://www.w3.org/2000/svg" width="24" height="24"><path style="stroke:none;fill-rule:nonzero;fill:#fff;fill-opacity:1" d="M22.648 3.32c0-.488-.175-.879-.523-1.164-.348-.293-.816-.441-1.406-.441L3.254 1.699c-.578 0-1.043.149-1.39.446-.352.285-.524.671-.524 1.164 0 .265.047.523.148.761.106.235.227.492.36.778l8.359 17.21c.273.57.55.965.828 1.18.285.211.602.32.953.32.356 0 .672-.109.95-.32.277-.215.558-.61.843-1.18l8.344-17.21c.145-.278.262-.532.363-.762.106-.242.16-.496.16-.766Zm0 0"/></svg>
